src/NuGetGallery/Content/gallery/img/microsoft-account.svg

<?xml version="1.0" encoding="UTF-8" standalone="no"?>
<svg
   xmlns:dc="http://purl.org/dc/elements/1.1/"
   xmlns:cc="http://creativecommons.org/ns#"
   xmlns:rdf="http://www.w3.org/1999/02/22-rdf-syntax-ns#"
   xmlns:svg="http://www.w3.org/2000/svg"
   xmlns="http://www.w3.org/2000/svg"
   xmlns:sodipodi="http://sodipodi.sourceforge.net/DTD/sodipodi-0.dtd"
   xmlns:inkscape="http://www.inkscape.org/namespaces/inkscape"
   viewBox="0 0 130 130"
   enable-background="new 0 0 130 130"
   version="1.1"
   id="svg20"
   sodipodi:docname="Microsoft_logo_(2012).svg"
   inkscape:version="0.92.1 r15371">
  <metadata
     id="metadata26">
    <rdf:RDF>
      <cc:Work
         rdf:about="">
        <dc:format>image/svg+xml</dc:format>
        <dc:type
           rdf:resource="http://purl.org/dc/dcmitype/StillImage" />
      </cc:Work>
    </rdf:RDF>
  </metadata>
  <defs
     id="defs24" />
  <sodipodi:namedview
     pagecolor="#ffffff"
     bordercolor="#666666"
     borderopacity="1"
     objecttolerance="10"
     gridtolerance="10"
     guidetolerance="10"
     inkscape:pageopacity="0"
     inkscape:pageshadow="2"
     inkscape:window-width="2560"
     inkscape:window-height="1346"
     id="namedview22"
     showgrid="false"
     inkscape:zoom="0.64367816"
     inkscape:cx="2.3303567"
     inkscape:cy="65"
     inkscape:window-x="-11"
     inkscape:window-y="-11"
     inkscape:window-maximized="1"
     inkscape:current-layer="g18">
    <inkscape:grid
       type="xygrid"
       id="grid12" />
  </sodipodi:namedview>
  <title
     id="title2">Microsoft Logo</title>
  <g
     id="g18">
    <path
       fill="#F25022"
       d="M0 0h61.3v61.3h-61.3z"
       id="path10" />
    <path
       fill="#7FBA00"
       d="M67.7 0h61.3v61.3h-61.3z"
       id="path12" />
    <path
       fill="#00A4EF"
       d="M0 67.7h61.3v61.3h-61.3z"
       id="path14" />
    <path
       fill="#FFB900"
       d="M67.7 67.7h61.3v61.3h-61.3z"
       id="path16" />
  </g>
</svg>

<svg xmlns="http://www.w3.org/2000/svg" viewBox="0 0 130 130" enable-background="new 0 0 130 130"><g><path fill="#F25022" d="M0 0h61.3v61.3H0z"/><path fill="#7FBA00" d="M67.7 0H129v61.3H67.7z"/><path fill="#00A4EF" d="M0 67.7h61.3V129H0z"/><path fill="#FFB900" d="M67.7 67.7H129V129H67.7z"/></g></svg>
